X:1
T:Title
%%score { ( 1 3 ) | ( 2 4 ) }
L:1/8
Q:1/4=126
M:4/4
K:G
V:1 treble nm="Grand Piano"
V:3 treble 
V:2 treble 
V:4 treble 
V:1
 G3 A G2 D2 | B3 c B2 G2 | d3 e d2 G2 | c2 B2 [DFA]4 | [^CGA]3 [CGB] [CGA]2 [A,CE]2 | %5
w: F.~R.~Webb * * *|||||
 [DA]3 [DB] [DFA]2 [A,DF]2 | .[A,FA]2 ^cB A2 G2 | F2 [^CE]2 D4 | [Gd]3 [=FB] [^Fc]2 [FA]2 | %9
w: ||||
 [Gd]3 [EB] [Fc]2 [CFA]2 | [B,B]-[B,^DB]EF GD B2 | d2 ^c2 [B,DB]4 | [DFc]3 [DFc] [DFB]2 [DFA]2 | %13
w: ||||
 [DGd]2 [DGd]2 [Ge]2 [Ge]2 | [Gd]2 [G^c]2 [Gd]2 [DGB]2 | .[CGA]2 .[CEA]2 [B,DG]4 |] %16
w: |||
V:2
 [G,B,D]3 [G,CD] [G,B,D]2 [G,B,]2 | [G,DG]3 [G,EG] [G,DG]2 [G,B,D]2 | %2
 [G,B,G]3 [G,CG] [G,B,G]2 [B,D]2 | [A,DF]2 [G,DG]2[K:bass] D,4 | E,3 E, A,,2 G,2 | F,3 F, D,2 D,2 | %6
 z[K:treble] d[K:bass] [E,A,]2 [F,D]2 [G,B,E]2 | [A,D]2 [A,,G,]2 [D,F,]4 | %8
 [D,B,]3 [D,^G,] [D,A,]2 [D,C]2 | [D,B,]3 [D,^G,] [D,A,]2 D,2 | ^D,B,,^C,D, E,F, [G,B,E]2 | %11
 [F,B,F]2 [F,_B,E]2 B,,4 | A,,3 A,, D,2 C,2 | B,,2 B,,2 [C,C]2 [^C,_B,]2 | %14
 [D,B,]2 [^D,_B,]2 [=D,=B,]2 D,2 | z F z D G,,4 |] %16
V:3
 x8 | x8 | x8 | x8 | x8 | x8 | z2 G2 z4 | x8 | x8 | x8 | .F2 [B,B]2 [B,B]2 z2 | x8 | x8 | x8 | x8 | %15
 x8 |] %16
V:4
 x8 | x8 | x8 | x4[K:bass] x4 | x8 | x8 | D,2[K:treble][K:bass] z2 z4 | x8 | x8 | x8 | x8 | x8 | %12
 x8 | x8 | x8 | D,2 D,2 z4 |] %16

